X:1014
T:Rheinländer från Tolg
S:efter Klockare Bergström
O:Tolg, Småland
Z:Till abc av Jon Magnusson 090114
R:Schottis
M:4/4 
L:1/8  
K:Am
G>A B>c d2 d>f|f>e c>e d2 d2|e>f e>d c>d c>B|B2 G2 E4|
G>A B>c d2 d>f|f>e c>e d2 d2|e>f e>d c2 E>G|B2 A2 A4:|
|:a>g a>b a2 g2|f2 e2 d4|e>f e>d c>d c>B|B2 G2 E4|
a>g a>b a2 g2|f2 e2 d4|e>f e>d c2 E>G|B2 A2 A4:|
(:musicend:)

(:music:)
